local/share/icons/dracula-icons-main/22/actions/minuet-intervals.svg

<?xml version="1.0" encoding="UTF-8"?>
<svg xmlns="http://www.w3.org/2000/svg" xmlns:xlink="http://www.w3.org/1999/xlink" width="22" height="22" viewBox="0 0 22 22">
<path fill-rule="nonzero" fill="rgb(100%, 100%, 100%)" fill-opacity="1" d="M 3 5 L 3 6 L 19 6 L 19 5 Z M 11.800781 7.097656 C 10.660156 7.085938 9.589844 7.789062 8.730469 9 L 3 9 L 3 10 L 8.132812 10 C 7.699219 10.851562 7.359375 11.871094 7.128906 13 L 3 13 L 3 14 L 6.953125 14 C 6.917969 14.265625 6.878906 14.535156 6.859375 14.808594 C 6.875 14.699219 6.890625 14.59375 6.910156 14.484375 C 6.96875 14.324219 7.035156 14.160156 7.09375 14 L 14.144531 14 C 14.339844 14.632812 14.839844 15.128906 15.472656 15.320312 C 16.523438 15.640625 17.636719 15.050781 17.960938 14 L 19 14 L 19 13 L 18.003906 13 C 17.855469 12.289062 17.332031 11.714844 16.636719 11.5 L 16.628906 11.496094 C 15.570312 11.179688 14.457031 11.777344 14.140625 12.832031 C 14.121094 12.886719 14.109375 12.945312 14.097656 13 L 7.46875 13 C 7.902344 11.90625 8.386719 10.859375 8.945312 10 L 15.007812 10 L 15.011719 10.003906 C 15.296875 10.328125 15.589844 10.699219 15.894531 11.117188 C 15.746094 10.71875 15.578125 10.347656 15.402344 10 L 19 10 L 19 9 L 14.800781 9 C 14.328125 8.335938 13.796875 7.816406 13.222656 7.496094 L 13.101562 7.429688 C 12.675781 7.21875 12.238281 7.105469 11.800781 7.101562 Z M 11.988281 7.992188 C 12.59375 8.058594 13.261719 8.390625 13.984375 9 L 9.703125 9 C 10.367188 8.296875 11.117188 7.894531 11.988281 7.992188 Z M 16.058594 12.457031 C 16.144531 12.457031 16.230469 12.46875 16.3125 12.492188 L 16.339844 12.5 C 16.851562 12.65625 17.144531 13.199219 16.988281 13.71875 C 16.835938 14.234375 16.292969 14.527344 15.777344 14.378906 C 15.261719 14.226562 14.960938 13.6875 15.109375 13.167969 C 15.230469 12.746094 15.617188 12.453125 16.058594 12.457031 Z M 7.097656 15.414062 C 6.199219 15.394531 5.398438 15.972656 5.140625 16.832031 C 5.121094 16.886719 5.109375 16.945312 5.097656 17 L 3 17 L 3 18 L 5.144531 18 C 5.339844 18.632812 5.835938 19.128906 6.46875 19.320312 C 7.523438 19.640625 8.636719 19.050781 8.960938 18 L 19 18 L 19 17 L 9.003906 17 C 8.855469 16.289062 8.332031 15.714844 7.632812 15.5 L 7.625 15.496094 C 7.453125 15.445312 7.277344 15.417969 7.097656 15.414062 Z M 7.054688 16.457031 C 7.144531 16.457031 7.230469 16.46875 7.3125 16.492188 L 7.339844 16.5 C 7.851562 16.65625 8.144531 17.199219 7.988281 17.71875 C 7.835938 18.234375 7.292969 18.527344 6.777344 18.378906 C 6.261719 18.226562 5.960938 17.6875 6.109375 17.167969 C 6.230469 16.746094 6.617188 16.453125 7.054688 16.457031 Z M 7.054688 16.457031 "/>
</svg>

<?xml version="1.0" encoding="UTF-8" standalone="no"?>
<!-- Created with Inkscape (http://www.inkscape.org/) -->
<svg id="svg3521" xmlns:rdf="http://www.w3.org/1999/02/22-rdf-syntax-ns#" xmlns="http://www.w3.org/2000/svg" height="22" viewBox="0 0 22 22" width="22" version="1.1" xmlns:cc="http://creativecommons.org/ns#" xmlns:dc="http://purl.org/dc/elements/1.1/">
 <defs id="defs4339">
  <style id="current-color-scheme" type="text/css">.ColorScheme-Text {
        color:#FFFFFF;
      }</style>
 </defs>
 <metadata id="metadata3526">
  <rdf:RDF>
   <cc:Work rdf:about="">
    <dc:format>image/svg+xml</dc:format>
    <dc:type rdf:resource="http://purl.org/dc/dcmitype/StillImage"/>
    <dc:title/>
   </cc:Work>
  </rdf:RDF>
 </metadata>
 <g id="layer1" transform="translate(0 -1030.4)">
  <path id="rect4314" class="ColorScheme-Text" style="fill:currentColor" d="m3 5v1h16v-1h-16zm8.801 2.0996c-1.142-0.0148-2.211 0.6908-3.0686 1.9004h-5.7324v1h5.1328c-0.4347 0.852-0.7718 1.871-1.0039 3h-4.1289v1h3.9512c-0.0348 0.267-0.0705 0.534-0.0918 0.807 0.0156-0.109 0.0325-0.215 0.0508-0.323 0.0575-0.16 0.1241-0.322 0.1836-0.484h7.0512a1.9977 1.9977 0 0 0 1.328 1.322 1.9977 1.9977 0 0 0 2.488 -1.322h1.039v-1h-0.996a1.9977 1.9977 0 0 0 -1.369 -1.5l-0.008-0.002a1.9977 1.9977 0 0 0 -2.488 1.334 1.9977 1.9977 0 0 0 -0.041 0.168h-6.6273c0.4324-1.092 0.9164-2.14 1.4727-3h6.0646l0.002 0.002c0.285 0.327 0.58 0.697 0.885 1.115-0.147-0.399-0.315-0.768-0.493-1.117h3.598v-1h-4.201c-0.471-0.663-1.002-1.1818-1.578-1.5039l-0.121-0.0645c-0.423-0.214-0.86-0.3254-1.299-0.33v-0.002zm0.189 0.8926c0.605 0.0676 1.271 0.3976 1.996 1.0078h-4.2829c0.6629-0.7019 1.4149-1.1054 2.2869-1.0078zm4.067 4.4648a0.97972 0.97972 0 0 1 0.255 0.035l0.026 0.008a0.97972 0.97972 0 0 1 0.652 1.217 0.97972 0.97972 0 0 1 -1.213 0.66 0.97972 0.97972 0 0 1 -0.668 -1.209 0.97972 0.97972 0 0 1 0.948 -0.711zm-8.9593 2.957a1.9977 1.9977 0 0 0 -1.959 1.418 1.9977 1.9977 0 0 0 -0.041 0.168h-2.0977v1h2.1445a1.9977 1.9977 0 0 0 1.3262 1.322 1.9977 1.9977 0 0 0 2.4902 -1.322h10.039v-1h-9.9961a1.9977 1.9977 0 0 0 -1.3691 -1.5l-0.0078-0.002a1.9977 1.9977 0 0 0 -0.5293 -0.084zm-0.0411 1.043a0.97972 0.97972 0 0 1 0.2559 0.035l0.0254 0.008a0.97972 0.97972 0 0 1 0.6523 1.217 0.97972 0.97972 0 0 1 -1.2129 0.66 0.97972 0.97972 0 0 1 -0.6679 -1.209 0.97972 0.97972 0 0 1 0.9472 -0.711z" transform="translate(0,1030.4)"/>
 </g>
</svg>
